layout/main/dist/assets/main/img/services/backend.svg

<svg width="100" height="101" viewBox="0 0 100 101" fill="none" xmlns="http://www.w3.org/2000/svg">
<g clip-path="url(#clip0)">
<g opacity="0.6">
<path d="M94.875 57.5322H86.9063C84.694 57.5349 82.5346 58.2071 80.7129 59.4602C78.8913 60.7134 77.4932 62.4885 76.7031 64.5512C75.5792 67.5229 73.5773 70.0836 70.9628 71.8942C68.3483 73.7047 65.2445 74.6796 62.0625 74.6898H58.9375V71.5702C58.9362 71.2778 58.8525 70.9917 58.6961 70.7444C58.5397 70.4972 58.3168 70.2989 58.0529 70.172C57.7889 70.0452 57.4946 69.9949 57.2035 70.027C56.9123 70.0591 56.6361 70.1723 56.4063 70.3536L40.7813 82.8318C40.5988 82.978 40.4515 83.1631 40.3503 83.3737C40.2491 83.5843 40.1965 83.8149 40.1965 84.0484C40.1965 84.282 40.2491 84.5126 40.3503 84.7231C40.4515 84.9337 40.5988 85.1189 40.7813 85.265L56.4063 97.7433C56.6361 97.9246 56.9123 98.0377 57.2035 98.0698C57.4946 98.1019 57.7889 98.0517 58.0529 97.9248C58.3168 97.798 58.5397 97.5996 58.6961 97.3524C58.8525 97.1052 58.9362 96.819 58.9375 96.5266V93.4071H62.0625C71.1793 93.4071 79.9227 89.7918 86.3693 83.3564C92.8159 76.9211 96.4375 68.1929 96.4375 59.092C96.4375 58.6783 96.2729 58.2816 95.9799 57.9891C95.6868 57.6966 95.2894 57.5322 94.875 57.5322Z" fill="#C4A2FC"/>
<path d="M94.875 57.5322H86.9063C84.694 57.5349 82.5346 58.2071 80.7129 59.4602C78.8913 60.7134 77.4932 62.4885 76.7031 64.5512C75.5792 67.5229 73.5773 70.0836 70.9628 71.8942C68.3483 73.7047 65.2445 74.6796 62.0625 74.6898H58.9375V71.5702C58.9362 71.2778 58.8525 70.9917 58.6961 70.7444C58.5397 70.4972 58.3168 70.2989 58.0529 70.172C57.7889 70.0452 57.4946 69.9949 57.2035 70.027C56.9123 70.0591 56.6361 70.1723 56.4063 70.3536L40.7813 82.8318C40.5988 82.978 40.4515 83.1631 40.3503 83.3737C40.2491 83.5843 40.1965 83.8149 40.1965 84.0484C40.1965 84.282 40.2491 84.5126 40.3503 84.7231C40.4515 84.9337 40.5988 85.1189 40.7813 85.265L56.4063 97.7433C56.6361 97.9246 56.9123 98.0377 57.2035 98.0698C57.4946 98.1019 57.7889 98.0517 58.0529 97.9248C58.3168 97.798 58.5397 97.5996 58.6961 97.3524C58.8525 97.1052 58.9362 96.819 58.9375 96.5266V93.4071H62.0625C71.1793 93.4071 79.9227 89.7918 86.3693 83.3564C92.8159 76.9211 96.4375 68.1929 96.4375 59.092C96.4375 58.6783 96.2729 58.2816 95.9799 57.9891C95.6868 57.6966 95.2894 57.5322 94.875 57.5322Z" fill="url(#paint0_linear)"/>
<path d="M47.4219 53.6328C48.5365 50.6549 50.536 48.088 53.1526 46.276C55.7692 44.464 58.8779 43.4934 62.0625 43.4942H65.1875V46.6138C65.1865 46.909 65.2694 47.1983 65.4266 47.4483C65.5838 47.6983 65.8088 47.8987 66.0755 48.0261C66.3423 48.1535 66.6397 48.2027 66.9333 48.1681C67.227 48.1335 67.5048 48.0164 67.7344 47.8304L83.3594 35.3522C83.5419 35.2061 83.6891 35.0209 83.7903 34.8103C83.8916 34.5997 83.9441 34.3691 83.9441 34.1356C83.9441 33.902 83.8916 33.6715 83.7903 33.4609C83.6891 33.2503 83.5419 33.0651 83.3594 32.919L67.7344 20.4408C67.5048 20.2548 67.227 20.1377 66.9333 20.1031C66.6397 20.0684 66.3423 20.1177 66.0755 20.2451C65.8088 20.3725 65.5838 20.5728 65.4266 20.8228C65.2694 21.0728 65.1865 21.3622 65.1875 21.6574V24.7769H62.0625C52.9457 24.7769 44.2023 28.3923 37.7557 34.8276C31.3091 41.2629 27.6875 49.9911 27.6875 59.092C27.6875 59.5057 27.8521 59.9024 28.1451 60.1949C28.4382 60.4874 28.8356 60.6518 29.25 60.6518H37.2188C39.431 60.6491 41.5905 59.9769 43.4121 58.7238C45.2337 57.4706 46.6318 55.6955 47.4219 53.6328Z" fill="#C4A2FC"/>
<path d="M47.4219 53.6328C48.5365 50.6549 50.536 48.088 53.1526 46.276C55.7692 44.464 58.8779 43.4934 62.0625 43.4942H65.1875V46.6138C65.1865 46.909 65.2694 47.1983 65.4266 47.4483C65.5838 47.6983 65.8088 47.8987 66.0755 48.0261C66.3423 48.1535 66.6397 48.2027 66.9333 48.1681C67.227 48.1335 67.5048 48.0164 67.7344 47.8304L83.3594 35.3522C83.5419 35.2061 83.6891 35.0209 83.7903 34.8103C83.8916 34.5997 83.9441 34.3691 83.9441 34.1356C83.9441 33.902 83.8916 33.6715 83.7903 33.4609C83.6891 33.2503 83.5419 33.0651 83.3594 32.919L67.7344 20.4408C67.5048 20.2548 67.227 20.1377 66.9333 20.1031C66.6397 20.0684 66.3423 20.1177 66.0755 20.2451C65.8088 20.3725 65.5838 20.5728 65.4266 20.8228C65.2694 21.0728 65.1865 21.3622 65.1875 21.6574V24.7769H62.0625C52.9457 24.7769 44.2023 28.3923 37.7557 34.8276C31.3091 41.2629 27.6875 49.9911 27.6875 59.092C27.6875 59.5057 27.8521 59.9024 28.1451 60.1949C28.4382 60.4874 28.8356 60.6518 29.25 60.6518H37.2188C39.431 60.6491 41.5905 59.9769 43.4121 58.7238C45.2337 57.4706 46.6318 55.6955 47.4219 53.6328Z" fill="url(#paint1_linear)"/>
<path d="M62.0625 65.331C65.5143 65.331 68.3125 62.5377 68.3125 59.0919C68.3125 55.6461 65.5143 52.8528 62.0625 52.8528C58.6107 52.8528 55.8125 55.6461 55.8125 59.0919C55.8125 62.5377 58.6107 65.331 62.0625 65.331Z" fill="#C4A2FC"/>
<path d="M62.0625 65.331C65.5143 65.331 68.3125 62.5377 68.3125 59.0919C68.3125 55.6461 65.5143 52.8528 62.0625 52.8528C58.6107 52.8528 55.8125 55.6461 55.8125 59.0919C55.8125 62.5377 58.6107 65.331 62.0625 65.331Z" fill="url(#paint2_linear)"/>
</g>
<path d="M37.5 2.93994C30.0832 2.93994 22.833 5.13544 16.6661 9.24882C10.4993 13.3622 5.69282 19.2087 2.85453 26.049C0.0162482 32.8892 -0.726377 40.4161 0.720569 47.6777C2.16751 54.9393 5.73904 61.6095 10.9835 66.8449C16.228 72.0802 22.9098 75.6455 30.1841 77.0899C37.4584 78.5343 44.9984 77.793 51.8506 74.9597C58.7029 72.1263 64.5596 67.3282 68.6801 61.1721C72.8007 55.0161 75 47.7785 75 40.3746C75 30.4463 71.0491 20.9246 64.0165 13.9043C56.9839 6.88394 47.4456 2.93994 37.5 2.93994ZM37.5 74.6897C30.7013 74.6897 24.0552 72.6771 18.4023 68.9065C12.7494 65.1359 8.34342 59.7767 5.74166 53.5064C3.1399 47.2361 2.45916 40.3365 3.78552 33.68C5.11189 27.0236 8.38579 20.9092 13.1932 16.1102C18.0007 11.3111 24.1257 8.0429 30.7938 6.71885C37.4619 5.39479 44.3736 6.07435 50.6548 8.67157C56.936 11.2688 62.3046 15.6671 66.0818 21.3101C69.859 26.9532 71.875 33.5877 71.875 40.3746C71.875 49.4755 68.2534 58.2037 61.8068 64.639C55.3603 71.0743 46.6168 74.6897 37.5 74.6897Z" fill="white"/>
<path d="M18.7501 21.6259C23.7289 16.673 30.4712 13.8919 37.5001 13.8919C44.529 13.8919 51.2713 16.673 56.2501 21.6259C56.5443 21.9176 56.9426 22.0806 57.3572 22.0791C57.7718 22.0777 58.1689 21.9118 58.4611 21.6181C58.7532 21.3244 58.9165 20.9269 58.915 20.513C58.9136 20.0991 58.7475 19.7027 58.4532 19.411C52.8864 13.8581 45.3386 10.7388 37.4689 10.7388C29.5991 10.7388 22.0513 13.8581 16.4845 19.411C16.1903 19.711 16.0274 20.1153 16.0318 20.535C16.0362 20.9548 16.2075 21.3556 16.5079 21.6493C16.8084 21.943 17.2134 22.1056 17.6339 22.1012C18.0544 22.0968 18.4559 21.9258 18.7501 21.6259Z" fill="white"/>
<path d="M56.25 59.1232C51.2713 64.0761 44.5289 66.8572 37.5 66.8572C30.4711 66.8572 23.7288 64.0761 18.75 59.1232C18.4573 58.8327 18.0612 58.6696 17.6485 58.6696C17.2357 58.6696 16.8396 58.8327 16.5469 59.1232C16.2559 59.4154 16.0925 59.8107 16.0925 60.2228C16.0925 60.6349 16.2559 61.0302 16.5469 61.3225C22.1137 66.8755 29.6615 69.9947 37.5313 69.9947C45.401 69.9947 52.9488 66.8755 58.5157 61.3225C58.8067 61.0302 58.97 60.6349 58.97 60.2228C58.97 59.8107 58.8067 59.4154 58.5157 59.1232C58.3697 58.9698 58.194 58.8477 57.9992 58.7642C57.8045 58.6807 57.5948 58.6377 57.3828 58.6377C57.1709 58.6377 56.9612 58.6807 56.7664 58.7642C56.5717 58.8477 56.396 58.9698 56.25 59.1232Z" fill="white"/>
<path d="M43.9844 51.2929C44.3988 51.2929 44.7962 51.1286 45.0892 50.8361C45.3823 50.5436 45.5469 50.1468 45.5469 49.7331V31.0158C45.5469 30.6022 45.3823 30.2054 45.0892 29.9129C44.7962 29.6204 44.3988 29.4561 43.9844 29.4561C43.57 29.4561 43.1725 29.6204 42.8795 29.9129C42.5865 30.2054 42.4219 30.6022 42.4219 31.0158V38.4872H32.5781V31.0158C32.5781 30.6022 32.4135 30.2054 32.1205 29.9129C31.8275 29.6204 31.43 29.4561 31.0156 29.4561C30.6012 29.4561 30.2038 29.6204 29.9108 29.9129C29.6177 30.2054 29.4531 30.6022 29.4531 31.0158V49.7331C29.4531 50.1468 29.6177 50.5436 29.9108 50.8361C30.2038 51.1286 30.6012 51.2929 31.0156 51.2929C31.43 51.2929 31.8275 51.1286 32.1205 50.8361C32.4135 50.5436 32.5781 50.1468 32.5781 49.7331V41.6067H42.4219V49.7331C42.4219 50.1468 42.5865 50.5436 42.8795 50.8361C43.1725 51.1286 43.57 51.2929 43.9844 51.2929Z" fill="white"/>
<path d="M26.2344 36.3036C26.2282 35.3983 26.0435 34.503 25.6908 33.6689C25.338 32.8348 24.8241 32.0782 24.1785 31.4423C23.5328 30.8065 22.768 30.3038 21.9277 29.9631C21.0875 29.6223 20.1882 29.45 19.2812 29.4562H14.0625C13.6481 29.4562 13.2507 29.6205 12.9576 29.9131C12.6646 30.2056 12.5 30.6023 12.5 31.016V49.7333C12.5 50.147 12.6646 50.5437 12.9576 50.8362C13.2507 51.1287 13.6481 51.2931 14.0625 51.2931C14.4769 51.2931 14.8743 51.1287 15.1674 50.8362C15.4604 50.5437 15.625 50.147 15.625 49.7333V43.151H19.2812C20.1888 43.1593 21.089 42.9885 21.9302 42.6484C22.7714 42.3084 23.537 41.8058 24.183 41.1695C24.8291 40.5333 25.3429 39.7759 25.695 38.9409C26.047 38.1058 26.2303 37.2096 26.2344 36.3036ZM15.6406 36.3036C15.6406 35.5861 15.6406 33.8548 15.6406 32.5758H19.2969C19.8065 32.5428 20.3176 32.6146 20.7984 32.7866C21.2792 32.9586 21.7195 33.2273 22.0921 33.576C22.4648 33.9246 22.7618 34.3459 22.9649 34.8137C23.1679 35.2815 23.2727 35.786 23.2727 36.2958C23.2727 36.8057 23.1679 37.3101 22.9649 37.7779C22.7618 38.2458 22.4648 38.667 22.0921 39.0157C21.7195 39.3644 21.2792 39.633 20.7984 39.8051C20.3176 39.9771 19.8065 40.0489 19.2969 40.0159H15.625C15.625 38.7993 15.625 37.1459 15.625 36.3036H15.6406Z" fill="white"/>
<path d="M55.5469 29.4561H50.3281C49.9137 29.4561 49.5163 29.6204 49.2233 29.9129C48.9302 30.2054 48.7656 30.6022 48.7656 31.0158V49.7331C48.7656 50.1468 48.9302 50.5436 49.2233 50.8361C49.5163 51.1286 49.9137 51.2929 50.3281 51.2929C50.7425 51.2929 51.14 51.1286 51.433 50.8361C51.726 50.5436 51.8906 50.1468 51.8906 49.7331V43.1509H55.5469C56.4742 43.1951 57.4008 43.051 58.2706 42.7272C59.1405 42.4034 59.9354 41.9068 60.6073 41.2673C61.2793 40.6278 61.8142 39.8589 62.1796 39.007C62.5451 38.1551 62.7335 37.238 62.7335 36.3113C62.7335 35.3845 62.5451 34.4675 62.1796 33.6156C61.8142 32.7637 61.2793 31.9947 60.6073 31.3552C59.9354 30.7158 59.1405 30.2191 58.2706 29.8953C57.4008 29.5716 56.4742 29.4274 55.5469 29.4717V29.4561ZM55.5469 40.0157H51.9063C51.9063 38.7835 51.9063 37.1302 51.9063 36.2879V32.5756H55.5625C56.0722 32.5426 56.5832 32.6144 57.064 32.7864C57.5448 32.9585 57.9851 33.2271 58.3578 33.5758C58.7304 33.9245 59.0274 34.3457 59.2305 34.8136C59.4335 35.2814 59.5383 35.7858 59.5383 36.2957C59.5383 36.8055 59.4335 37.31 59.2305 37.7778C59.0274 38.2456 58.7304 38.6669 58.3578 39.0155C57.9851 39.3642 57.5448 39.6329 57.064 39.8049C56.5832 39.9769 56.0722 40.0487 55.5625 40.0157H55.5469Z" fill="white"/>
</g>
<defs>
<linearGradient id="paint0_linear" x1="68.317" y1="57.5322" x2="68.317" y2="98.0792" gradientUnits="userSpaceOnUse">
<stop stop-color="#009FFF"/>
<stop offset="0.817708" stop-color="#FC466B"/>
</linearGradient>
<linearGradient id="paint1_linear" x1="55.8158" y1="20.0923" x2="55.8158" y2="60.6518" gradientUnits="userSpaceOnUse">
<stop stop-color="#009FFF"/>
<stop offset="0.817708" stop-color="#FC466B"/>
</linearGradient>
<linearGradient id="paint2_linear" x1="62.0625" y1="52.8528" x2="62.0625" y2="65.331" gradientUnits="userSpaceOnUse">
<stop stop-color="#009FFF"/>
<stop offset="0.817708" stop-color="#FC466B"/>
</linearGradient>
<clipPath id="clip0">
<rect width="100" height="99.8257" fill="white" transform="translate(0 0.600342)"/>
</clipPath>
</defs>
</svg>

<svg width="100" height="101" viewBox="0 0 100 101" fill="none" xmlns="http://www.w3.org/2000/svg"><g clip-path="url(#clip0)"><g opacity=".6"><path d="M94.875 57.532h-7.969a10.952 10.952 0 00-6.193 1.928 10.922 10.922 0 00-4.01 5.091 15.68 15.68 0 01-5.74 7.343 15.723 15.723 0 01-8.9 2.796h-3.126v-3.12a1.558 1.558 0 00-.884-1.398 1.566 1.566 0 00-1.647.182L40.781 82.832a1.56 1.56 0 000 2.433l15.625 12.478a1.564 1.564 0 002.532-1.216v-3.12h3.124c9.117 0 17.86-3.615 24.307-10.05a34.285 34.285 0 0010.069-24.265 1.558 1.558 0 00-1.563-1.56z" fill="#C4A2FC"/><path d="M94.875 57.532h-7.969a10.952 10.952 0 00-6.193 1.928 10.922 10.922 0 00-4.01 5.091 15.68 15.68 0 01-5.74 7.343 15.723 15.723 0 01-8.9 2.796h-3.126v-3.12a1.558 1.558 0 00-.884-1.398 1.566 1.566 0 00-1.647.182L40.781 82.832a1.56 1.56 0 000 2.433l15.625 12.478a1.564 1.564 0 002.532-1.216v-3.12h3.124c9.117 0 17.86-3.615 24.307-10.05a34.285 34.285 0 0010.069-24.265 1.558 1.558 0 00-1.563-1.56z" fill="url(#paint0_linear)"/><path d="M47.422 53.633a15.602 15.602 0 015.73-7.357 15.644 15.644 0 018.91-2.782h3.126v3.12a1.558 1.558 0 00.888 1.412 1.565 1.565 0 001.658-.196L83.36 35.352a1.56 1.56 0 000-2.433L67.734 20.441a1.563 1.563 0 00-2.546 1.216v3.12h-3.126a34.406 34.406 0 00-24.306 10.05 34.285 34.285 0 00-10.069 24.265 1.558 1.558 0 001.563 1.56h7.969a10.952 10.952 0 006.193-1.928 10.922 10.922 0 004.01-5.091z" fill="#C4A2FC"/><path d="M47.422 53.633a15.602 15.602 0 015.73-7.357 15.644 15.644 0 018.91-2.782h3.126v3.12a1.558 1.558 0 00.888 1.412 1.565 1.565 0 001.658-.196L83.36 35.352a1.56 1.56 0 000-2.433L67.734 20.441a1.563 1.563 0 00-2.546 1.216v3.12h-3.126a34.406 34.406 0 00-24.306 10.05 34.285 34.285 0 00-10.069 24.265 1.558 1.558 0 001.563 1.56h7.969a10.952 10.952 0 006.193-1.928 10.922 10.922 0 004.01-5.091z" fill="url(#paint1_linear)"/><path d="M62.063 65.331a6.245 6.245 0 006.25-6.24c0-3.445-2.799-6.238-6.25-6.238a6.244 6.244 0 00-6.25 6.239 6.244 6.244 0 006.25 6.239z" fill="#C4A2FC"/><path d="M62.063 65.331a6.245 6.245 0 006.25-6.24c0-3.445-2.799-6.238-6.25-6.238a6.244 6.244 0 00-6.25 6.239 6.244 6.244 0 006.25 6.239z" fill="url(#paint2_linear)"/></g><path d="M37.5 2.94a37.547 37.547 0 00-20.834 6.309 37.45 37.45 0 00-13.811 16.8A37.374 37.374 0 00.72 47.678a37.415 37.415 0 0010.262 19.167A37.52 37.52 0 0030.184 77.09a37.561 37.561 0 0021.667-2.13 37.486 37.486 0 0016.83-13.788 37.387 37.387 0 00-4.665-47.268A37.533 37.533 0 0037.5 2.94zm0 71.75a34.418 34.418 0 01-19.098-5.784 34.328 34.328 0 01-12.66-15.4A34.26 34.26 0 013.786 33.68a34.297 34.297 0 019.407-17.57 34.394 34.394 0 0117.6-9.391 34.43 34.43 0 0119.862 1.953A34.363 34.363 0 0166.082 21.31a34.272 34.272 0 01-4.275 43.329A34.406 34.406 0 0137.5 74.689z" fill="#fff"/><path d="M18.75 21.626a26.586 26.586 0 0118.75-7.734 26.586 26.586 0 0118.75 7.734 1.564 1.564 0 002.665-1.113 1.559 1.559 0 00-.462-1.102 29.714 29.714 0 00-20.984-8.672c-7.87 0-15.418 3.12-20.985 8.672a1.582 1.582 0 001.15 2.69c.42-.004.822-.175 1.116-.475zm37.5 37.497a26.586 26.586 0 01-18.75 7.734 26.586 26.586 0 01-18.75-7.734 1.564 1.564 0 00-2.203 0 1.558 1.558 0 000 2.2 29.714 29.714 0 0020.984 8.672c7.87 0 15.418-3.12 20.985-8.673a1.559 1.559 0 000-2.199 1.563 1.563 0 00-2.266 0zm-12.266-7.83a1.564 1.564 0 001.563-1.56V31.016a1.558 1.558 0 00-1.563-1.56 1.564 1.564 0 00-1.562 1.56v7.471h-9.844v-7.471a1.559 1.559 0 00-1.562-1.56 1.564 1.564 0 00-1.563 1.56v18.717a1.558 1.558 0 001.563 1.56 1.564 1.564 0 001.562-1.56v-8.126h9.844v8.126a1.559 1.559 0 001.562 1.56zm-17.75-14.989a6.886 6.886 0 00-2.056-4.862 6.907 6.907 0 00-4.897-1.986h-5.218a1.564 1.564 0 00-1.563 1.56v18.717a1.558 1.558 0 001.563 1.56 1.564 1.564 0 001.562-1.56v-6.582h3.656a6.899 6.899 0 004.902-1.982 6.879 6.879 0 002.051-4.865zm-10.593 0v-3.728h3.656a3.74 3.74 0 013.668 2.238 3.723 3.723 0 01-2.167 4.991 3.74 3.74 0 01-1.501.21h-3.672v-3.711h.016zm39.906-6.848h-5.219a1.564 1.564 0 00-1.562 1.56v18.717a1.558 1.558 0 001.562 1.56 1.564 1.564 0 001.563-1.56v-6.582h3.656a6.87 6.87 0 005.06-1.884 6.845 6.845 0 001.573-7.651 6.846 6.846 0 00-3.91-3.72 6.87 6.87 0 00-2.723-.424v-.016zm0 10.56h-3.64v-7.44h3.656a3.74 3.74 0 013.667 2.238 3.723 3.723 0 01-2.166 4.99 3.74 3.74 0 01-1.502.212h-.015z" fill="#fff"/></g><defs><linearGradient id="paint0_linear" x1="68.317" y1="57.532" x2="68.317" y2="98.079" gradientUnits="userSpaceOnUse"><stop stop-color="#009FFF"/><stop offset=".818" stop-color="#FC466B"/></linearGradient><linearGradient id="paint1_linear" x1="55.816" y1="20.092" x2="55.816" y2="60.652" gradientUnits="userSpaceOnUse"><stop stop-color="#009FFF"/><stop offset=".818" stop-color="#FC466B"/></linearGradient><linearGradient id="paint2_linear" x1="62.063" y1="52.853" x2="62.063" y2="65.331" gradientUnits="userSpaceOnUse"><stop stop-color="#009FFF"/><stop offset=".818" stop-color="#FC466B"/></linearGradient><clipPath id="clip0"><path fill="#fff" transform="translate(0 .6)" d="M0 0h100v99.826H0z"/></clipPath></defs></svg>
